src/48x48/places/folder-gruvbox-original-aqua-script.svg

<?xml version="1.0" encoding="UTF-8"?>
<svg width="48" height="48" version="1" xmlns="http://www.w3.org/2000/svg">
 <rect x="4" y="17" width="40" height="26" rx="2" ry="2" opacity=".2"/>
 <path d="m4 34c0 1.108 0.892 2 2 2h36c1.108 0 2-0.892 2-2v-22c0-1.108-0.892-2-2-2h-18c-3 0-4-4-7-4h-11c-1.108 0-2 0.892-2 2" fill="#427b58"/>
 <rect x="4" y="15" width="40" height="26" rx="2" ry="2" opacity=".2"/>
 <rect x="6" y="13" width="36" height="16" rx="2" ry="2" fill="#D5D7B3"/>
 <rect x="4" y="16" width="40" height="26" rx="2" ry="2" fill="#8ec07c"/>
 <path d="m6 6c-1.108 0-2 0.892-2 2v1c0-1.108 0.892-2 2-2h11c3 0 4 4 7 4h18c1.108 0 2 0.892 2 2v-1c0-1.108-0.892-2-2-2h-18c-3 0-4-4-7-4z" fill="#D5D7B3" opacity=".1"/>
 <path d="m16 21v16h16v-16z" fill="#313D38"/>
 <g fill="#8ec07c">
  <path d="m24 29h4v1h-4z"/>
  <rect x="20" y="23" width="1" height="7"/>
  <path d="m19.5 24c-0.83 0-1.5 0.67-1.5 1.5s0.67 1.5 1.5 1.5h2c0.28 0 0.5 0.22 0.5 0.5s-0.22 0.51-0.5 0.5h-3.41c0.21 0.58 0.76 1 1.41 1h2c0.83 0 1.5-0.67 1.5-1.5s-0.67-1.5-1.5-1.5h-2c-0.28 0-0.5-0.22-0.5-0.5s0.22-0.5 0.5-0.5h3.41c-0.21-0.58-0.76-1-1.41-1h-0.5z"/>
 </g>
</svg>

<svg xmlns="http://www.w3.org/2000/svg" width="48" height="48" version="1">
 <rect style="opacity:0.2" width="40" height="26" x="4" y="17" rx="2" ry="2"/>
 <path style="fill:#427b58" d="M 4,34 C 4,35.108 4.892,36 6,36 H 42 C 43.108,36 44,35.108 44,34 V 12 C 44,10.892 43.108,10 42,10 H 24 C 21,10 20,6 17,6 H 6 C 4.892,6 4,6.892 4,8"/>
 <rect style="opacity:0.2" width="40" height="26" x="4" y="15" rx="2" ry="2"/>
 <rect style="fill:#D5D7B3" width="36" height="16" x="6" y="13" rx="2" ry="2"/>
 <rect style="fill:#8ec07c" width="40" height="26" x="4" y="16" rx="2" ry="2"/>
 <path style="opacity:0.1;fill:#D5D7B3" d="M 6,6 C 4.892,6 4,6.892 4,8 V 9 C 4,7.892 4.892,7 6,7 H 17 C 20,7 21,11 24,11 H 42 C 43.108,11 44,11.892 44,13 V 12 C 44,10.892 43.108,10 42,10 H 24 C 21,10 20,6 17,6 Z"/>
 <path style="fill:#313D38" d="M 16,21 V 37 H 32 V 21 Z"/>
 <g style="fill:#8ec07c">
  <path style="fill:#8ec07c" d="M 24,29 H 28 V 30 H 24 Z"/>
  <rect style="fill:#8ec07c" width="1" height="7" x="20" y="23"/>
  <path style="fill:#8ec07c" d="M 19.5,24 C 18.67,24 18,24.67 18,25.5 18,26.33 18.67,27 19.5,27 H 21 21.5 C 21.78,27 22,27.22 22,27.5 22,27.78 21.78,28.01 21.5,28 H 21 19.5 18.09 C 18.3,28.58 18.85,29 19.5,29 H 21 21.5 C 22.33,29 23,28.33 23,27.5 23,26.67 22.33,26 21.5,26 H 21 19.5 C 19.22,26 19,25.78 19,25.5 19,25.22 19.22,25 19.5,25 H 21 21.5 22.91 C 22.7,24.42 22.15,24 21.5,24 H 21 Z"/>
 </g>
</svg>
